packages/icons/raw/imported/FilesTable.svg

<svg width="32" height="32" viewBox="0 0 32 32" fill="none" xmlns="http://www.w3.org/2000/svg">
<path d="M8.50002 11.6154L8.15109 11.2573L8.00003 11.4045L8.00002 11.6154L8.50002 11.6154ZM13.75 6.5V6H13.5467L13.4011 6.14189L13.75 6.5ZM23.5 9.42308H23H23.5ZM23.5 22.5769H24H23.5ZM8.5 22.5769L9 22.5769L8.5 22.5769ZM14.5 12.3462V12.8462H15V12.3462H14.5ZM8.50002 12.3462L8.00002 12.3462V12.3462L8.50002 12.3462ZM8.84896 11.9735L14.0989 6.85811L13.4011 6.14189L8.15109 11.2573L8.84896 11.9735ZM11.5 26H20.5V25H11.5V26ZM23 9.42308L23 22.5769H24L24 9.42308H23ZM11.5 25C10.107 25 9 23.903 9 22.5769L8 22.5769C8 24.4796 9.57932 26 11.5 26V25ZM20.5 26C22.4207 26 24 24.4796 24 22.5769H23C23 23.903 21.893 25 20.5 25V26ZM20.5 7C21.893 7 23 8.09701 23 9.42308H24C24 7.5204 22.4207 6 20.5 6V7ZM13.75 7H14.5V6H13.75V7ZM14.5 7H20.5V6H14.5V7ZM8.00002 11.6154L8.00002 12.3462L9.00002 12.3462L9.00002 11.6154L8.00002 11.6154ZM8.00002 12.3462L8 22.5769L9 22.5769L9.00002 12.3462L8.00002 12.3462ZM14 6.5V12.3462H15V6.5H14ZM14.5 11.8462H8.50002V12.8462H14.5V11.8462ZM12.5 15.7692H16V14.7692H12.5V15.7692ZM16 15.7692H19.5V14.7692H16V15.7692ZM12.5 23.0769H16V22.0769H12.5V23.0769ZM16 23.0769H19.5V22.0769H16V23.0769ZM15.5 15.2692V18.9231H16.5V15.2692H15.5ZM15.5 18.9231V22.5769H16.5V18.9231H15.5ZM21 21.5769V18.9231H20V21.5769H21ZM21 18.9231V16.2692H20V18.9231H21ZM11 16.2692V18.9231H12V16.2692H11ZM11 18.9231V21.5769H12V18.9231H11ZM20.5 18.4231H16V19.4231H20.5V18.4231ZM16 18.4231H11.5V19.4231H16V18.4231ZM19.5 23.0769C20.3284 23.0769 21 22.4053 21 21.5769H20C20 21.8531 19.7761 22.0769 19.5 22.0769V23.0769ZM12.5 22.0769C12.2239 22.0769 12 21.8531 12 21.5769H11C11 22.4053 11.6716 23.0769 12.5 23.0769V22.0769ZM19.5 15.7692C19.7761 15.7692 20 15.9931 20 16.2692H21C21 15.4408 20.3284 14.7692 19.5 14.7692V15.7692ZM12.5 14.7692C11.6716 14.7692 11 15.4408 11 16.2692H12C12 15.9931 12.2239 15.7692 12.5 15.7692V14.7692Z" fill="black"/>
</svg>

<svg width="32" height="32" fill="none" xmlns="http://www.w3.org/2000/svg"><path d="m8.5 11.615-.349-.358-.151.148v.21h.5ZM13.75 6.5V6h-.203l-.146.142.349.358Zm9.75 2.923H23h.5Zm0 13.154h.5-.5Zm-15 0H9h-.5Zm6-10.23v.5h.5v-.5h-.5Zm-6 0H8h.5Zm.349-.373 5.25-5.116-.698-.716-5.25 5.115.698.716ZM11.5 26h9v-1h-9v1ZM23 9.423v13.154h1V9.423h-1ZM11.5 25C10.107 25 9 23.903 9 22.577H8C8 24.48 9.58 26 11.5 26v-1Zm9 1c1.92 0 3.5-1.52 3.5-3.423h-1C23 23.903 21.893 25 20.5 25v1Zm0-19C21.893 7 23 8.097 23 9.423h1C24 7.52 22.42 6 20.5 6v1Zm-6.75 0h.75V6h-.75v1Zm.75 0h6V6h-6v1ZM8 11.615v.731h1v-.73H8Zm0 .731v10.23h1v-10.23H8ZM14 6.5v5.846h1V6.5h-1Zm.5 5.346h-6v1h6v-1Zm-2 3.923H16v-1h-3.5v1Zm3.5 0h3.5v-1H16v1Zm-3.5 7.308H16v-1h-3.5v1Zm3.5 0h3.5v-1H16v1Zm-.5-7.808v3.654h1V15.27h-1Zm0 3.654v3.654h1v-3.654h-1Zm5.5 2.654v-2.654h-1v2.654h1Zm0-2.654V16.27h-1v2.654h1ZM11 16.27v2.654h1V16.27h-1Zm0 2.654v2.654h1v-2.654h-1Zm9.5-.5H16v1h4.5v-1Zm-4.5 0h-4.5v1H16v-1Zm3.5 4.654a1.5 1.5 0 0 0 1.5-1.5h-1a.5.5 0 0 1-.5.5v1Zm-7-1a.5.5 0 0 1-.5-.5h-1a1.5 1.5 0 0 0 1.5 1.5v-1Zm7-6.308a.5.5 0 0 1 .5.5h1a1.5 1.5 0 0 0-1.5-1.5v1Zm-7-1a1.5 1.5 0 0 0-1.5 1.5h1a.5.5 0 0 1 .5-.5v-1Z" fill="#000"/></svg>
